svgs/twrp.svg

<svg xmlns="http://www.w3.org/2000/svg" viewBox="0 0 192 192"><path fill="none" stroke="#000" stroke-linecap="round" stroke-linejoin="round" stroke-width="8" d="M133.05 27.799v18.153h21.375a1.778 1.778 0 0 1 1.779 1.815 1.925 1.925 0 0 1-.334 1.074l-42.195 56.384a1.817 1.817 0 0 1-2.557.333 1.609 1.609 0 0 1-.37-.333L68.701 48.878a1.773 1.773 0 0 1 1.37-2.889h21.376V17.945a1.485 1.485 0 0 0-1.519-1.445 79.779 79.779 0 0 0-46.189 19.377 79.768 79.768 0 0 0-25.528 43.095 79.767 79.767 0 0 0 5.201 49.818 79.769 79.769 0 0 0 33.878 36.893 1.522 1.522 0 0 0 1.825-.38c.219-.257.346-.579.361-.917v-18.93H37.989c-.481 0-.943-.191-1.283-.532a1.812 1.812 0 0 1-.532-1.283 2.01 2.01 0 0 1 .37-1.112l42.085-56.457a1.851 1.851 0 0 1 2.593-.296l.334.296 42.047 56.457a1.815 1.815 0 0 1-.371 2.557 1.966 1.966 0 0 1-1.074.37h-21.376v28.562a1.483 1.483 0 0 0 1.482 1.482 79.775 79.775 0 0 0 46.041-19.399 79.78 79.78 0 0 0 25.468-42.982 79.777 79.777 0 0 0-5.097-49.699 79.77 79.77 0 0 0-33.663-36.917 1.516 1.516 0 0 0-1.963.778 1.41 1.41 0 0 0 0 .518Z"/></svg>

<svg
    xmlns="http://www.w3.org/2000/svg"
    viewBox="0 0 192 192"
    id="vector">
    <path
        id="path"
        d="M 133.05 27.799 L 133.05 45.952 L 154.425 45.952 C 154.742 45.952 155.052 46.036 155.325 46.196 C 155.598 46.356 155.823 46.586 155.978 46.862 C 156.132 47.138 156.21 47.451 156.204 47.767 C 156.202 48.15 156.086 48.524 155.87 48.841 L 113.675 105.225 C 113.48 105.479 113.222 105.678 112.926 105.801 C 112.63 105.923 112.307 105.966 111.99 105.923 C 111.672 105.88 111.371 105.754 111.118 105.558 C 110.978 105.467 110.853 105.354 110.748 105.225 L 68.701 48.878 C 68.421 48.529 68.283 48.088 68.315 47.642 C 68.346 47.196 68.544 46.778 68.87 46.472 C 69.195 46.166 69.624 45.993 70.071 45.989 L 91.447 45.989 L 91.447 17.945 C 91.44 17.685 91.366 17.431 91.23 17.209 C 91.094 16.987 90.902 16.805 90.674 16.68 C 90.445 16.556 90.188 16.494 89.928 16.5 C 72.853 17.832 56.653 24.628 43.739 35.877 C 30.825 47.126 21.871 62.241 18.211 78.972 C 14.55 95.703 16.375 113.176 23.412 128.79 C 30.449 144.404 42.331 157.344 57.29 165.683 C 57.593 165.831 57.938 165.875 58.268 165.806 C 58.598 165.737 58.897 165.56 59.115 165.303 C 59.334 165.046 59.461 164.724 59.476 164.386 L 59.476 145.456 L 37.989 145.456 C 37.508 145.456 37.046 145.265 36.706 144.924 C 36.365 144.584 36.174 144.122 36.174 143.641 C 36.184 143.242 36.313 142.855 36.544 142.529 L 78.629 86.072 C 78.934 85.691 79.379 85.445 79.864 85.39 C 80.35 85.334 80.838 85.473 81.222 85.776 L 81.556 86.072 L 123.603 142.529 C 123.797 142.786 123.919 143.089 123.957 143.407 C 123.996 143.726 123.949 144.05 123.822 144.344 C 123.694 144.639 123.491 144.895 123.232 145.086 C 122.919 145.312 122.545 145.441 122.158 145.456 L 100.782 145.456 L 100.782 174.018 C 100.783 174.278 100.851 174.534 100.981 174.759 C 101.111 174.984 101.298 175.171 101.523 175.301 C 101.749 175.432 102.004 175.5 102.264 175.5 C 119.29 174.131 135.434 167.329 148.305 156.101 C 161.176 144.872 170.106 129.801 173.773 113.119 C 177.439 96.437 175.652 79.01 168.676 63.42 C 161.699 47.829 149.896 34.885 135.013 26.503 C 134.649 26.352 134.24 26.35 133.874 26.495 C 133.508 26.64 133.212 26.922 133.05 27.281 C 133.018 27.452 133.018 27.628 133.05 27.799 Z"
        fill="none"
        stroke="#000000"
        stroke-width="8"
        stroke-linecap="round"
        stroke-linejoin="round"/>
</svg>
